img/school/school-snack/picts/4.svg

<svg width="79" height="76" viewBox="0 0 79 76" fill="none" xmlns="http://www.w3.org/2000/svg">
<path d="M2.38052 39.1309C-0.139485 27.9709 4.38052 25.6408 7.38052 22.8708C7.94052 22.3708 7.1905 10.021 8.6105 4.49097C8.6105 4.49097 12.5105 3.14102 12.7005 3.04102C12.7005 3.04102 13.2605 22.451 13.7005 22.791C18.0705 26.431 18.2505 41.4408 37.7005 54.3408C54.7905 65.7108 74.7005 64.281 74.7005 64.281L76.6404 68.511C73.3904 72.871 50.5404 77.411 35.1504 72.241C11.4504 64.321 5.33052 52.2109 2.38052 39.1309Z" stroke="#575756" stroke-width="2.7" stroke-miterlimit="10"/>
</svg>

<svg width="79" height="76" fill="none" xmlns="http://www.w3.org/2000/svg"><path d="M2.38 39.13c-2.52-11.16 2-13.49 5-16.26.56-.5-.19-12.849 1.23-18.379 0 0 3.9-1.35 4.09-1.45 0 0 .56 19.41 1 19.75 4.37 3.64 4.55 18.65 24 31.55 17.09 11.37 37 9.94 37 9.94l1.94 4.23c-3.25 4.36-26.1 8.9-41.49 3.73-23.7-7.92-29.82-20.03-32.77-33.11z" stroke="#575756" stroke-width="2.7" stroke-miterlimit="10"/></svg>
